!!!COM: Du Fay, Guillaume
!!!CDT: ~1397/08/05/-1474/11/27
!!!OTL: Resvellies vous et faites chiere lye (ballade)
!!!AGN: Song; Chanson; Ballade
!!!SCT: Duf3014
!!!SCA: Duf3014
!!!voices: 3
**kern	**text	**text	**kern	**text	**text	**kern	**text	**text
*staff3	*staff3	*staff3	*staff2	*staff2	*staff2	*staff1	*staff1	*staff1
*Ivox	*	*	*Ivox	*	*	*Ivox	*	*
*I"Contra	*	*	*I"Tenor	*	*	*I"Discantus	*	*
*I'C	*	*	*I'T	*	*	*I'D	*	*
*>[A,B]	*>[A,B]	*>[A,B]	*>[A,B]	*>[A,B]	*>[A,B]	*>[A,B]	*>[A,B]	*>[A,B]
*>A	*>A	*>A	*>A	*>A	*>A	*>A	*>A	*>A
*clefGv2	*	*	*clefGv2	*	*	*clefG2	*	*
*k[b-]	*	*	*k[b-]	*	*	*k[]	*	*
*M6/2	*	*	*M6/2	*	*	*M6/2	*	*
*met(C.)	*	*	*met(C.)	*	*	*met(C.)	*	*
*MM340	*	*	*MM340	*	*	*MM340	*	*
=1-	=1-	=1-	=1-	=1-	=1-	=1-	=1-	=1-
!!!OMD: Resvellies vous
!!section: Resvellies vous
0.G	.	.	0.g	.	.	[1.dd	.	.
.	.	.	.	.	.	1dd]	.	.
.	.	.	.	.	.	2b	.	.
=2	=2	=2	=2	=2	=2	=2	=2	=2
2r	.	.	0.f	.	.	2dd	.	.
2r	.	.	.	.	.	2cc	.	.
2d	.	.	.	.	.	2a	.	.
2c	.	.	.	.	.	2cc	.	.
2d	.	.	.	.	.	2b	.	.
2Bni	.	.	.	.	.	2a	.	.
=3	=3	=3	=3	=3	=3	=3	=3	=3
0.c#	.	.	0.e	.	.	1.g#	.	.
.	.	.	.	.	.	2r	.	.
.	.	.	.	.	.	2r	.	.
.	.	.	.	.	.	2g#i	.	.
=4	=4	=4	=4	=4	=4	=4	=4	=4
2r	.	.	1.d	.	.	2b	.	.
2r	.	.	.	.	.	1a	.	.
2d	.	.	.	.	.	.	.	.
1A	.	.	1.c	.	.	2f	.	.
.	.	.	.	.	.	1e	.	.
2G	.	.	.	.	.	.	.	.
=5	=5	=5	=5	=5	=5	=5	=5	=5
*	*	*	*	*	*	*M6/2	*	*
*	*	*	*	*	*	*met(2)	*	*
*	*	*	*	*	*	*rscale:2	*	*
!!pcomment: met(2) here means 12/2. (Note values doubled relative to met(C.)
1B-	.	.	1.d	.	.	2d	.	.
.	.	.	.	.	.	4r	.	.
.	.	.	.	.	.	4d	.	.
2c	.	.	.	.	.	4e	.	.
.	.	.	.	.	.	4f	.	.
2d	.	.	1G	.	.	4g	.	.
.	.	.	.	.	.	4a	.	.
2r	.	.	.	.	.	4b	.	.
.	.	.	.	.	.	4cc	.	.
2G	.	.	2d	.	.	4b	.	.
.	.	.	.	.	.	4a	.	.
=6	=6	=6	=6	=6	=6	=6	=6	=6
2g	.	.	2c	.	.	4cc	.	.
.	.	.	.	.	.	4dd	.	.
2f	.	.	1d	.	.	4b	.	.
.	.	.	.	.	.	4a	.	.
2e	.	.	.	.	.	4cc	.	.
.	.	.	.	.	.	4b	.	.
1d	.	.	2B-	.	.	4g	.	.
.	.	.	.	.	.	4a	.	.
.	.	.	1A	.	.	4g	.	.
.	.	.	.	.	.	4f#i	.	.
2c	.	.	.	.	.	4f#i	.	.
.	.	.	.	.	.	4e	.	.
*	*	*	*	*	*	*rscale:1	*	*
=7	=7	=7	=7	=7	=7	=7	=7	=7
*	*	*	*	*	*	*M6/2	*	*
*	*	*	*	*	*	*met(C.)	*	*
2e	.	.	1G	.	.	1.g	.	.
2d	.	.	.	.	.	.	.	.
2Bni	.	.	2r	.	.	.	.	.
2c	.	.	2e	Res-	Es-	1.r	.	.
1A	.	.	2e	-vel-	-ba-	.	.	.
.	.	.	2f	-li&eacute;s	-t&eacute;s	.	.	.
=8	=8	=8	=8	=8	=8	=8	=8	=8
0.G	.	.	1g	vous	vous,	2b	Res-	Es-
.	.	.	.	.	.	2b	-vel-	-ba-
.	.	.	2g	et	fu-	2cc	-li&eacute;s	-t&eacute;s
.	.	.	1d	fai-	-y&eacute;s	1dd	vous	vous,
.	.	.	2d	-tes	me-	2dd	et	fu-
=9	=9	=9	=9	=9	=9	=9	=9	=9
1d	fai-	me-	1f	chie-	-ran-	1a	fai-	-y&eacute;s
2e	-tes	.	1e	.	.	2g	-tes	me-
2g	chie-	-ran-	.	.	.	1a	chie-	-ran-
1f	-re	-co-	1d	-re	-co-	.	.	.
.	.	.	.	.	.	2b	-re	-co-
=10	=10	=10	=10	=10	=10	=10	=10	=10
1.g	.	-ly	1c	ly-	-ly-	2cc	ly-	-ly-
.	.	.	.	.	.	2b	.	.
.	.	.	2d	.	.	2a	.	.
1.r	.	.	2B-	.	.	1g	.	.
.	.	.	1c	.	.	.	.	.
.	.	.	.	.	.	2e	.	.
=11	=11	=11	=11	=11	=11	=11	=11	=11
0G	Tous	De	1.d	-e	-e,	2d	.	.
.	.	.	.	.	.	2g	.	.
.	.	.	.	.	.	2f	.	.
.	.	.	2r	.	.	1.d	-e	-e,
[1G	a-	bien	2r	.	.	.	.	.
.	.	.	2G	Tous	De	.	.	.
=12	=12	=12	=12	=12	=12	=12	=12	=12
2G]	.	.	1.B-	a-	bien	2r	.	.
1d	.	ser-	.	.	.	2r	.	.
.	.	.	.	.	.	2d	Tous	De
1c	.	.	1.A	-mou-	ser-	2e	a-	bien
.	.	.	.	.	.	1f	-mou-	ser-
2B-	-mou-	.	.	.	.	.	.	.
=13	=13	=13	=13	=13	=13	=13	=13	=13
1d	-reux	-vir	0.G	-reux	-vir	1g	-reux	-vir
2r	.	.	.	.	.	2dd	qui	point
2r	.	.	.	.	.	1dd	gen-	ne
1g	qui	point	.	.	.	.	.	.
.	.	.	.	.	.	2b	-til-	so-
=14	=14	=14	=14	=14	=14	=14	=14	=14
1e	gen-	ne	1.c	a-	ho-	2g	-les-	-y&eacute;s
.	.	.	.	.	.	2cc	.	.
2f	-til-	so-	.	.	.	2b-i	.	.
1d	-lesse	-y&eacute;s	1.B-	.	.	2a	-se	.
.	.	.	.	.	.	1g	a-	ho-
2c	a-	ho-	.	.	.	.	.	.
=15	=15	=15	=15	=15	=15	=15	=15	=15
2eN	-m&eacute;s;&	-d&eacute;s.&	1.AN	-m&eacute;s;&	-d&eacute;s.&	0.aN	-m&eacute;s;&	-d&eacute;s.&
!!scomment: On the first pass the mp3 file should stop here and go back to the beginning.
2r	.	.	.	.	.	.	.	.
2d	.	.	.	.	.	.	.	.
2e	.	.	2r	.	.	.	.	.
1f	.	.	2r	.	.	.	.	.
.	.	.	2d	.	.	.	.	.
=16	=16	=16	=16	=16	=16	=16	=16	=16
2g	.	.	2e	.	.	2r	.	.
1d	.	.	1f	.	.	2r	.	.
.	.	.	.	.	.	2a	.	.
[1.G	.	.	1g	.	.	2b	.	.
.	.	.	.	.	.	1cc	.	.
.	.	.	2e	.	.	.	.	.
=17	=17	=17	=17	=17	=17	=17	=17	=17
1.G]	.	.	2d	.	.	1dd	.	.
.	.	.	2r	.	.	.	.	.
.	.	.	2d	.	.	2b	.	.
1.F	.	.	2f	.	.	2a	.	.
.	.	.	2e	.	.	2r	.	.
.	.	.	2d	.	.	2a	.	.
=18	=18	=18	=18	=18	=18	=18	=18	=18
1.A	.	.	1c	.	.	2cc	.	.
.	.	.	.	.	.	2b	.	.
.	.	.	2c	.	.	2a	.	.
2r	.	.	1c	.	.	1g	.	.
2r	.	.	.	.	.	.	.	.
2c	.	.	2A	.	.	2f	.	.
=19	=19	=19	=19	=19	=19	=19	=19	=19
2d	.	.	1.G	.	.	1g	.	.
1g	.	.	.	.	.	.	.	.
.	.	.	.	.	.	2e	.	.
1f	.	.	2r	.	.	1.d	.	.
.	.	.	1d	.	.	.	.	.
2e	.	.	.	.	.	.	.	.
=20	=20	=20	=20	=20	=20	=20	=20	=20
1d	.	.	1f	.	.	2r	.	.
.	.	.	.	.	.	1a	.	.
1A	.	.	2e	.	.	.	.	.
.	.	.	2c	.	.	1cc	.	.
1G	.	.	1d	.	.	.	.	.
.	.	.	.	.	.	2b	.	.
=21	=21	=21	=21	=21	=21	=21	=21	=21
2g	.	.	1c	.	.	2g	.	.
2f	.	.	.	.	.	1a	.	.
2e	.	.	1B-	.	.	.	.	.
2d	.	.	.	.	.	1g	.	.
2e	.	.	1A	.	.	.	.	.
2c	.	.	.	.	.	2f#i	.	.
=22	=22	=22	=22	=22	=22	=22	=22	=22
0.dl	.	.	0.Gl	.	.	0.gl	.	.
!!LO:LB:i:g=z
=23:|!	=23:|!	=23:|!	=23:|!	=23:|!	=23:|!	=23:|!	=23:|!	=23:|!
*>B	*>B	*>B	*>B	*>B	*>B	*>B	*>B	*>B
*clefGv2	*	*	*clefGv2	*	*	*clefG2	*	*
*k[b-]	*	*	*k[b-]	*	*	*k[]	*	*
*M3/1	*	*	*M3/1	*	*	*M3/1	*	*
*met(O)	*	*	*met(O)	*	*	*met(O)	*	*
*MM340	*	*	*MM340	*	*	*MM340	*	*
!!!OMD: Car au jour d'ui
!!section: Car au jour d'ui
0f	Car	.	0.d	Car	.	1a	Car	.
.	.	.	.	.	.	1a	au	.
1f	au	.	.	.	.	1dd	jour	.
=24	=24	=24	=24	=24	=24	=24	=24	=24
2r	.	.	0.f	jour	.	1cc	d'ui	.
1F	jour	.	.	.	.	.	.	.
.	.	.	.	.	.	1b	.	.
1F	d'ui	.	.	.	.	.	.	.
.	.	.	.	.	.	1a	se-	.
2F	se-	.	.	.	.	.	.	.
=25	=25	=25	=25	=25	=25	=25	=25	=25
1c	-ra	.	0.e	es-	.	0g	-ra	.
1r	.	.	.	.	.	.	.	.
1c	li	.	.	.	.	1g	li	.
=26	=26	=26	=26	=26	=26	=26	=26	=26
1f	es-	.	0.d	-pou-	.	0a	es-	.
2g	.	.	.	.	.	.	.	.
1f	.	.	.	.	.	.	.	.
.	.	.	.	.	.	1b	-pou-	.
2e	-pou-	.	.	.	.	.	.	.
=27	=27	=27	=27	=27	=27	=27	=27	=27
1g	-s&eacute;s,	.	0c	-s&eacute;s,	.	1cc	-s&eacute;s,	.
1e	.	.	.	.	.	2r	.	.
.	.	.	.	.	.	2cc	.	.
1c	.	.	1g	.	.	2dd	.	.
.	.	.	.	.	.	2ee	.	.
=28	=28	=28	=28	=28	=28	=28	=28	=28
1d	.	.	0f	.	.	2a	.	.
.	.	.	.	.	.	2b	.	.
1B-	.	.	.	.	.	2dd	.	.
.	.	.	.	.	.	2cc	.	.
1c	.	.	1e	.	.	2cc	.	.
.	.	.	.	.	.	2b	.	.
=29	=29	=29	=29	=29	=29	=29	=29	=29
0G	.	.	0d	.	.	1dd	.	.
.	.	.	.	.	.	1r	.	.
1G	Par	.	1d	Par	.	1dd	Par	.
=30	=30	=30	=30	=30	=30	=30	=30	=30
0.g	grant	.	1c	grant	.	1ee	grant	.
.	.	.	1G	.	.	1dd	.	.
.	.	.	1c	hon-	.	1cc	hon-	.
=31	=31	=31	=31	=31	=31	=31	=31	=31
1r	.	.	2g	-neur	.	1.b	-neur	.
.	.	.	2f	.	.	.	.	.
1g	et	.	1e	.	.	.	.	.
.	.	.	.	.	.	2b	et	.
1f	.	.	1d	.	.	2b	no-	.
.	.	.	.	.	.	2b	-ble	.
=32	=32	=32	=32	=32	=32	=32	=32	=32
2a	no-	.	0c	sei-	.	1cc	sei-	.
1g	.	.	.	.	.	.	.	.
.	.	.	.	.	.	2dd	-gnou-	.
1e	-ble	.	.	.	.	2cc	.	.
.	.	.	1d	-gnou-	.	2b	-ri-	.
[2f	sei-	.	.	.	.	2a	.	.
=33	=33	=33	=33	=33	=33	=33	=33	=33
2f]	.	.	1G	-ri-	.	1g	-e;	.
1d	.	.	.	.	.	.	.	.
.	.	.	1d	.	.	2r	.	.
2B-	.	.	.	.	.	2d	.	.
1A	.	.	1c	.	.	2e	.	.
.	.	.	.	.	.	2f	.	.
=34	=34	=34	=34	=34	=34	=34	=34	=34
*	*	*	*	*	*	*M6/2	*	*
*	*	*	*	*	*	*met(2)	*	*
*	*	*	*	*	*	*rscale:2	*	*
!!pcomment: Same idea here -- "2" means 12/2
2a	-gnou-	.	0d	-e;	.	4d	.	.
.	.	.	.	.	.	4c	.	.
2g	.	.	.	.	.	4d	.	.
.	.	.	.	.	.	4e	.	.
2f	-ri-	.	.	.	.	4f	.	.
.	.	.	.	.	.	4g	.	.
2e	.	.	.	.	.	4f	.	.
.	.	.	.	.	.	4g	.	.
1d	-e;	.	1f	.	.	4a	.	.
.	.	.	.	.	.	4b	.	.
.	.	.	.	.	.	4cc	.	.
.	.	.	.	.	.	4dd	.	.
=35	=35	=35	=35	=35	=35	=35	=35	=35
2r	.	.	1d	.	.	4dd	.	.
.	.	.	.	.	.	4cc	.	.
2d	.	.	.	.	.	4a	.	.
.	.	.	.	.	.	4cc	.	.
1G	.	.	2e	.	.	4b-i	.	.
.	.	.	.	.	.	4g	.	.
.	.	.	2d	.	.	4a	.	.
.	.	.	.	.	.	4b-i	.	.
1d	.	.	2c	.	.	4a	.	.
.	.	.	.	.	.	4g	.	.
.	.	.	2B-	.	.	4g	.	.
.	.	.	.	.	.	4f	.	.
*	*	*	*	*	*	*rscale:1	*	*
=36	=36	=36	=36	=36	=36	=36	=36	=36
*	*	*	*	*	*	*M3/1	*	*
*	*	*	*	*	*	*met(O)	*	*
1e	.	.	0.A	.	.	1a	.	.
2g	.	.	.	.	.	1r	.	.
1f	.	.	.	.	.	.	.	.
.	.	.	.	.	.	1r	.	.
2e	.	.	.	.	.	.	.	.
=37	=37	=37	=37	=37	=37	=37	=37	=37
1g	.	.	0G	Se	.	0d	Se	.
1r	.	.	.	.	.	.	.	.
1r	.	.	1c	vous	.	1e	vous	.
=38	=38	=38	=38	=38	=38	=38	=38	=38
1d	Se	.	1B-	con-	.	2g	con-	.
.	.	.	.	.	.	1f	.	.
1c	vous	.	1A	.	.	.	.	.
.	.	.	.	.	.	2e	.	.
1d	con-	.	[1G	-vient	.	1g	-vient	.
=39	=39	=39	=39	=39	=39	=39	=39	=39
1.G	-vient	.	2G]	.	.	1dd	ung	.
.	.	.	1B-	ung	.	.	.	.
.	.	.	.	.	.	1cc	chas-	.
1g	ung	.	2c	.	.	.	.	.
.	.	.	1d	chas-	.	2b	.	.
2f	.	.	.	.	.	[2a	.	.
=40	=40	=40	=40	=40	=40	=40	=40	=40
1d	chas-	.	2f	-cum	.	2a]	.	.
.	.	.	1e	.	.	2g	.	.
2g	.	.	.	.	.	1b	-cum	.
1f	.	.	2d	.	.	.	.	.
.	.	.	1c	fai-	.	2cc	fai-	.
2e	.	.	.	.	.	[2a	.	.
=41	=41	=41	=41	=41	=41	=41	=41	=41
1d	-cum	.	2d	.	.	2a]	.	.
.	.	.	1B-	.	.	2g	.	.
2d	fai-	.	.	.	.	1f	-re	.
1c	.	.	2A	.	.	.	.	.
.	.	.	1G	-re	.	2g	fe-	.
2B-	.	.	.	.	.	[2d	.	.
=42	=42	=42	=42	=42	=42	=42	=42	=42
1d	-re	.	2G	fe-	.	2d]	.	.
.	.	.	1B-	.	.	2g	.	.
2d	fe-	.	.	.	.	1f	.	.
1A	.	.	2d	.	.	.	.	.
.	.	.	1c	.	.	1e	.	.
2c	.	.	.	.	.	.	.	.
=43	=43	=43	=43	=43	=43	=43	=43	=43
0G	-ste,	.	0d	-ste,	.	1d	-ste,	.
.	.	.	.	.	.	1r	.	.
1f	Pour	.	1d	Pour	.	1a	Pour	.
=44	=44	=44	=44	=44	=44	=44	=44	=44
*	*	*	*	*	*	*M3/1	*	*
*	*	*	*	*	*	*met(3)	*	*
1e	bien	.	1g	bien	.	3%2b	bien	.
.	.	.	.	.	.	3cc	.	.
1d	grig-	.	1f	grig-	.	3%2dd	.	.
.	.	.	.	.	.	3dd	grig-	.
1g	.	.	1e	.	.	3%2cc#i	.	.
.	.	.	.	.	.	3b	.	.
=45	=45	=45	=45	=45	=45	=45	=45	=45
1a	-nier	.	0.d	-nier	.	3%2dd	-nier	.
.	.	.	.	.	.	3a	.	.
1f	.	.	.	.	.	3b-i	.	.
.	.	.	.	.	.	3%2a	.	.
1d	.	.	.	.	.	3g	.	.
.	.	.	.	.	.	3a	.	.
.	.	.	.	.	.	3f	.	.
=46	=46	=46	=46	=46	=46	=46	=46	=46
0.A	.	.	0c#	.	.	3%2.e	.	.
.	.	.	.	.	.	3%2r	.	.
.	.	.	.	.	.	3e	la	.
.	.	.	1c#	la	.	3%2e	bel-	.
.	.	.	.	.	.	3e	-le	.
=47	=47	=47	=47	=47	=47	=47	=47	=47
1r	.	.	1d	bel-	.	3%2f	com-	.
.	.	.	.	.	.	3g	-pag-	.
1d	com-	.	1f	.	.	3a	-ny-	.
.	.	.	.	.	.	3r	.	.
.	.	.	.	.	.	3dd	.	.
1g	-pag-	.	1e	-le	.	3cc	.	.
.	.	.	.	.	.	3dd	.	.
.	.	.	.	.	.	3b	.	.
=48	=48	=48	=48	=48	=48	=48	=48	=48
1f	-ny-	.	2d	com-	.	3r	.	.
.	.	.	.	.	.	3cc	.	.
.	.	.	2c	-pag-	.	.	.	.
.	.	.	.	.	.	3a	.	.
2e	.	.	1B-	-ny-	.	3r	.	.
.	.	.	.	.	.	3g	.	.
1d	.	.	.	.	.	.	.	.
.	.	.	.	.	.	3a	.	.
.	.	.	1A	.	.	3f#i	.	.
.	.	.	.	.	.	3g	.	.
2c	.	.	.	.	.	.	.	.
.	.	.	.	.	.	3e	.	.
=49	=49	=49	=49	=49	=49	=49	=49	=49
*	*	*	*	*	*	*M3/1	*	*
*	*	*	*	*	*	*met(O)	*	*
!!pcomment: met(O) in brackets (ideally)
0d	-e;	.	0G	-e;	.	0g	-e;	.
1r	.	.	1r	.	.	1r	.	.
=50	=50	=50	=50	=50	=50	=50	=50	=50
0.Al;	Char-	.	0.f#l;	Char-	.	0.al;	Char-	.
=51	=51	=51	=51	=51	=51	=51	=51	=51
0.Gl;	-le	.	0.gl;	-le	.	0.bl;	-le	.
=52	=52	=52	=52	=52	=52	=52	=52	=52
0.g#l;	gen-	.	0.el;	gen-	.	0.cc#l;	gen-	.
=53	=53	=53	=53	=53	=53	=53	=53	=53
0.al;	-til,	.	0.dl;	-til,	.	0.ddl;	-til,	.
=54	=54	=54	=54	=54	=54	=54	=54	=54
*	*	*	*	*	*	*M6/2	*	*
*	*	*	*	*	*	*met(C.)	*	*
0.G	c'on	.	0.g	c'on	.	1dd	c'on	.
.	.	.	.	.	.	2dd	dit	.
.	.	.	.	.	.	2ee	.	.
.	.	.	.	.	.	2dd	.	.
.	.	.	.	.	.	2b	.	.
=55	=55	=55	=55	=55	=55	=55	=55	=55
1.G	dit	.	1d	dit	.	2r	.	.
.	.	.	.	.	.	2dd	.	.
.	.	.	2e	.	.	2cc	.	.
1.d	.	.	2g	.	.	2b	.	.
.	.	.	1f#i	.	.	1a	.	.
=56	=56	=56	=56	=56	=56	=56	=56	=56
2r	.	.	1g	.	.	1.g	.	.
1G	de	.	.	.	.	.	.	.
.	.	.	2e	.	.	.	.	.
1g	Ma-	.	1.c	.	.	2r	.	.
.	.	.	.	.	.	2r	.	.
2e	.	.	.	.	.	2cc	de	.
=57	=57	=57	=57	=57	=57	=57	=57	=57
2c	.	.	2r	.	.	1cc	Ma-	.
1g	-la-	.	2r	.	.	.	.	.
.	.	.	2c	de	.	2b	-la-	.
*	*	*	*	*	*	*M6/2	*	*
*	*	*	*	*	*	*met(2)	*	*
*	*	*	*	*	*	*rscale:2	*	*
!!pcomment: doubled values begin middle of measure
[1.f	-tes-	.	[1.d	Ma-	.	2a	-tes-	.
.	.	.	.	.	.	4r	.	.
.	.	.	.	.	.	4a	.	.
.	.	.	.	.	.	4b	.	.
.	.	.	.	.	.	4cc	.	.
=58	=58	=58	=58	=58	=58	=58	=58	=58
1f]	.	.	1.d]	.	.	4dd	.	.
.	.	.	.	.	.	4ee	.	.
.	.	.	.	.	.	4dd	.	.
.	.	.	.	.	.	4cc	.	.
2e	.	.	.	.	.	4dd	.	.
.	.	.	.	.	.	4b	.	.
2d	.	.	1f	.	.	2a	.	.
2r	.	.	.	.	.	4dd	.	.
.	.	.	.	.	.	4cc	.	.
2d	.	.	2f	-la-	.	4a	.	.
.	.	.	.	.	.	4b	.	.
=59	=59	=59	=59	=59	=59	=59	=59	=59
*	*	*	*	*	*	*M6/2	*	*
*	*	*	*	*	*	*met(3)	*	*
!!pcomment: time sig. effectively 9/2 in this bar
2c	.	.	2e	-tes-	.	6g	.	.
.	.	.	.	.	.	6a	.	.
.	.	.	.	.	.	6b-i	.	.
2d	.	.	1d	.	.	6a	.	.
.	.	.	.	.	.	6g	.	.
.	.	.	.	.	.	6f	.	.
2B-	.	.	.	.	.	6e	.	.
.	.	.	.	.	.	6f	.	.
.	.	.	.	.	.	6d	.	.
2A	.	.	1c	.	.	6e	.	.
.	.	.	.	.	.	6f	.	.
.	.	.	.	.	.	6g	.	.
1d	.	.	.	.	.	6a	.	.
.	.	.	.	.	.	6b-i	.	.
.	.	.	.	.	.	6a	.	.
.	.	.	2B-	.	.	6g	.	.
.	.	.	.	.	.	6a	.	.
.	.	.	.	.	.	6f	.	.
*	*	*	*	*	*	*rscale:1	*	*
=60	=60	=60	=60	=60	=60	=60	=60	=60
*	*	*	*	*	*	*M6/2	*	*
*	*	*	*	*	*	*met(C.)	*	*
2e	.	.	1.A	.	.	0.a	.	.
2r	.	.	.	.	.	.	.	.
2d	.	.	.	.	.	.	.	.
2e	.	.	2r	.	.	.	.	.
1f	.	.	2r	.	.	.	.	.
.	.	.	2d	.	.	.	.	.
=61	=61	=61	=61	=61	=61	=61	=61	=61
2g	.	.	2e	.	.	2r	.	.
1d	.	.	1f	.	.	2r	.	.
.	.	.	.	.	.	2a	.	.
[1.G	.	.	1g	.	.	2b	.	.
.	.	.	.	.	.	1cc	.	.
.	.	.	2e	.	.	.	.	.
=62	=62	=62	=62	=62	=62	=62	=62	=62
1.G]	.	.	2d	.	.	1dd	.	.
.	.	.	2r	.	.	.	.	.
.	.	.	2d	.	.	2b	.	.
1.F	.	.	2f	.	.	2a	.	.
.	.	.	2e	.	.	2r	.	.
.	.	.	2d	.	.	2a	.	.
=63	=63	=63	=63	=63	=63	=63	=63	=63
1.A	.	.	1c	.	.	2cc	.	.
.	.	.	.	.	.	2b	.	.
.	.	.	2c	.	.	2a	.	.
2r	.	.	1c	.	.	1g	.	.
2r	.	.	.	.	.	.	.	.
2c	.	.	2A	.	.	2f	.	.
=64	=64	=64	=64	=64	=64	=64	=64	=64
2d	.	.	1.G	.	.	1g	.	.
1g	.	.	.	.	.	.	.	.
.	.	.	.	.	.	2e	.	.
1f	.	.	2r	.	.	1.d	.	.
.	.	.	1d	.	.	.	.	.
2e	.	.	.	.	.	.	.	.
=65	=65	=65	=65	=65	=65	=65	=65	=65
1d	.	.	1f	.	.	2r	.	.
.	.	.	.	.	.	1a	.	.
1A	.	.	2e	.	.	.	.	.
.	.	.	2c	.	.	1cc	.	.
1G	.	.	1d	.	.	.	.	.
.	.	.	.	.	.	2b	.	.
=66	=66	=66	=66	=66	=66	=66	=66	=66
2g	.	.	1c	.	.	2g	.	.
2f	.	.	.	.	.	1a	.	.
2e	.	.	1B-	.	.	.	.	.
2d	.	.	.	.	.	1g	.	.
2e	.	.	1A	.	.	.	.	.
2c	.	.	.	.	.	2f#i	.	.
=67	=67	=67	=67	=67	=67	=67	=67	=67
0.dl	-te.	.	0.Gl	-te.	.	0.gl	-te.	.
==	==	==	==	==	==	==	==	==
*-	*-	*-	*-	*-	*-	*-	*-	*-
!!!RDF**kern: l=long note in original notation
!!!RDF**kern: i=editorial accidental
!!!RDF**kern: N=signum congruentiae
!!!ENC: Jesse Rodin 19 September 2017
!!!END: 2017/09/25/
!!!EED: Jesse Rodin
!!!EEV: 2017/09/26/
!!!ONB: Translated from MusicXML and edited on 2017/09/26/ by Craig Sapp
!!muse2ps: C^@{COM}^i2I150l2600v95,95,150c140
